X: 18490
T: Hyvarinen Polkka
R: polka
M: 2/4
K: Aminor
c|"Am" e3d e3d|cdcB A2c2|"E" BcBA ^G2E2|"Am"A^GAB cBcd|
"Am" e3d e3d|cdcB A2c2|"E" BcBA ^GEFG|"Am"A2A2 A2z:|
E|E2A2 A2B2|cdcB A2c2|"E" BcBA ^G2E2|"Am"A^GAB cBA2|
E2A2 A2B2|cdcB A2c2|"E" BcBA ^GEFG|"Am"A2A2 A2z:|

